!!!Genre:	Freylekhs
!!!Mode:	Altered Dorian
!!!Listening/dance:	dance
!!!One_Mode:	yes
**kern
*part1
*staff1
*clefG2
*k[b-]
*g:dor
*M2/4
*>A
8d
=1!|:
8gL
(>8qcc#X/
8ddJ)
8gL
16aL
16b-JJ
=2
8gL
(>8qcc#X/
8ddJ)
8gL
16aL
16b-JJ
=3
8gL
(>8qcc#X/
8ddJ)
(>8qcc#/
8ddL)
8ddJ
=4
(>8.cc#XL
16b-Jk)
16cc#LL
16b-
16a
16gJJ
=5
8gL
(>8qcc#X/
8ddJ)
8gL
16aL
16b-JJ
=6
8gL
(>8qcc#X/
8ddJ)
8gL
16aL
16b-JJ
=7
8ddL
16cc#XL
16b-JJ
16aLL
16g
16a
16b-JJ
*>A1
=8
4g
4gg
*>A2
=9:|!
4.g
8dd
=10!|:
*>B
16cc#XLL
16dd
16ee
16ffJJ
4dd
=11
16ffLL
16ee
16dd
16cc#XJJ
4dd
=12
16cc#XLL
16dd
16ee
16ffJJ
8.ddL
16cc#Jk
=13
16ddLL
16cc#X
16b-
16aJJ
8.gL
16ddJk
=14
16cc#XLL
16dd
16ee
16ffJJ
8.ddL
16ffJk
=15
16ffLL
16ee
16dd
16cc#XJJ
8.ddL
16ggJk
=16
16ggLL
16ff
16ee
16ddJJ
16cc#XLL
16b-
16a
16gJJ
*>B1
=17
16aLL
16b-JJ
4g
8dd
*>B2
=18:|!
16aLL
16b-JJ
4g
==
*-
